!!!OTL: ICH WAR JUENGLING NOCH BEI JAHREN
!!!ARE: Europa, Mitteleuropa, Deutschland
!!!SCT: B0169
!!!YEM: Copyright 1995, estate of Helmut Schaffrath.
**kern
*ICvox
*Ivox
*M4/4
*k[]
*C:
{8G
8c
=1
4.e
8d
8d
8c
8c
8B
=2
4.B
8A
4A}
{8d
8d
=3
4.c
8c
4B
8A
8B
=4
2c
4r}
{8G
8c
=5
4.e
8d
8d
8c
8c
8B
=6
4.B
8A
4A}
{8d
8d
=7
4.c
8c
4B
8A
8B
=8
2c
4r}
{8A
8A
=9
4.d
8d
4c#
8d
8e
=10
4.f
8e
4d}
{8d
8d
=11
4.c
8d
4c
4c
=12
2.d}
{8G
8G
=13
4c
4d
4e
4d
=14
4.c
8B
4c}
{8c#
8c#
=15
4.d
8d
4c
4B
=16
2.d}
{8G
8G
=17
4c
4d
4e
4d
=18
4.c
8B
4c}
{8c#
8c#
=19
4.d
8d
4c
4B
=20
2c
4r}
==
!!!AGN: Ballade, Romanze
!!!ONB: ESAC (Essen Associative Code) Database: BOEHME
!!!AMT: simple quadruple
!!!AIN: vox
!!!EED: Helmut Schaffrath
!!!EEV: 1.0
*-
